X: 23
T: Morrison's
Z: Nadeau
S: https://thesession.org/tunes/71#setting52556
R: jig
M: 6/8
L: 1/8
K: Edor
|:"Em"E3 B3|EBE "D"AFD|"Em"EDE B2c|"G"dcB "D"AFD|
"Em"E3 B3|EBE "D"AFD|"G"G3 FGA|"D"BAG FED:|
"Em"Bee fee|aee "D"fed|"Em"Bee fee|"D"fag fed|
"Em"Bee fee|aee "D"fef|"G"gfe d2A|"Bm"BAG "D" FED|
"Em"Bee fee|aee "D"fed|"Em"Bee fee|"D"faf def|
"G"g2g gfe|"D"def "G"g2d|"Em"edc "D"d2A|"Bm" BAG "D" FED||

